ascleai.svg

<?xml version="1.0" encoding="UTF-8" standalone="no"?>
<svg
   width="176"
   height="176"
   xml:space="preserve"
   overflow="hidden"
   version="1.1"
   id="svg13"
   sodipodi:docname="logo2.svg"
   inkscape:version="1.4 (e7c3feb1, 2024-10-09)"
   xmlns:inkscape="http://www.inkscape.org/namespaces/inkscape"
   xmlns:sodipodi="http://sodipodi.sourceforge.net/DTD/sodipodi-0.dtd"
   xmlns="http://www.w3.org/2000/svg"
   xmlns:svg="http://www.w3.org/2000/svg"><defs
     id="defs13" /><sodipodi:namedview
     id="namedview13"
     pagecolor="#ffffff"
     bordercolor="#000000"
     borderopacity="0.25"
     inkscape:showpageshadow="2"
     inkscape:pageopacity="0.0"
     inkscape:pagecheckerboard="0"
     inkscape:deskcolor="#d1d1d1"
     inkscape:zoom="0.81015563"
     inkscape:cx="19.132126"
     inkscape:cy="-33.32693"
     inkscape:window-width="1104"
     inkscape:window-height="655"
     inkscape:window-x="42"
     inkscape:window-y="153"
     inkscape:window-maximized="0"
     inkscape:current-layer="svg13" /><g
     transform="matrix(1,0,0,1.2492399,-94.765669,-476.4929)"
     id="g13"><g
       id="g12"><g
         id="g11"><g
           id="g10"><g
             id="g9"><path
               d="m 168.721,500.429 c -1.563,0.747 -3.037,1.324 -4.442,1.743 -1.404,0.418 -2.888,0.617 -4.471,0.617 -2.012,0 -3.854,-0.299 -5.527,-0.886 -1.673,-0.588 -3.107,-1.484 -4.302,-2.679 -1.215,-1.195 -2.152,-2.709 -2.809,-4.531 -0.667,-1.823 -0.996,-3.954 -0.996,-6.394 0,-4.541 1.245,-8.116 3.745,-10.706 2.5,-2.589 5.796,-3.884 9.889,-3.884 1.593,0 3.157,0.229 4.691,0.678 1.533,0.448 2.937,0.995 4.222,1.643 v 5.198 h -0.249 c -1.424,-1.115 -2.898,-1.962 -4.422,-2.559 -1.513,-0.598 -2.997,-0.896 -4.441,-0.896 -2.659,0 -4.751,0.896 -6.284,2.679 -1.534,1.782 -2.301,4.401 -2.301,7.847 0,3.446 0.747,5.926 2.251,7.728 1.504,1.803 3.615,2.699 6.334,2.699 0.946,0 1.912,-0.13 2.888,-0.369 0.976,-0.249 1.862,-0.577 2.639,-0.975 0.677,-0.349 1.314,-0.718 1.912,-1.106 0.598,-0.388 1.066,-0.727 1.414,-1.006 h 0.249 v 5.149 z"
               fill="#5c5c5b"
               fill-rule="nonzero"
               fill-opacity="1"
               id="path1" /><path
               d="m 177.973,502.172 h -4.681 v -38.72 h 4.681 z"
               fill="#5c5c5b"
               fill-rule="nonzero"
               fill-opacity="1"
               id="path2" /><path
               d="m 258.739,500.319 h -6.722 v -31.977 h 6.722 z"
               fill="#5a7bbb"
               fill-rule="nonzero"
               fill-opacity="1"
               id="path3" /><path
               d="m 206.585,488.757 h -20.486 c 0,1.713 0.259,3.197 0.767,4.472 0.518,1.264 1.215,2.31 2.111,3.127 0.867,0.796 1.893,1.394 3.078,1.792 1.185,0.399 2.489,0.598 3.923,0.598 1.893,0 3.795,-0.379 5.717,-1.135 1.912,-0.757 3.276,-1.494 4.093,-2.231 h 0.249 v 5.099 c -1.574,0.667 -3.187,1.225 -4.83,1.673 -1.643,0.448 -3.366,0.667 -5.179,0.667 -4.611,0 -8.216,-1.245 -10.805,-3.745 -2.589,-2.499 -3.884,-6.044 -3.884,-10.636 0,-4.591 1.235,-8.156 3.725,-10.825 2.479,-2.669 5.746,-4.003 9.789,-4.003 3.755,0 6.643,1.095 8.674,3.286 2.032,2.191 3.048,5.298 3.048,9.332 v 2.539 z m -4.552,-3.585 c -0.02,-2.46 -0.637,-4.352 -1.852,-5.696 -1.215,-1.345 -3.077,-2.012 -5.557,-2.012 -2.48,0 -4.501,0.737 -5.985,2.211 -1.484,1.474 -2.331,3.306 -2.53,5.497 z"
               fill="#5c5c5b"
               fill-rule="nonzero"
               fill-opacity="1"
               id="path4" /><path
               d="m 220.796,463.452 h -5.597 -4.681 v 4.68 5.597 h 4.681 v -5.597 h 5.597 z"
               fill="#5c5c5b"
               fill-rule="nonzero"
               fill-opacity="1"
               id="path5" /><path
               d="m 260.362,505 h 5.607 4.671 v -4.681 -5.596 h -4.671 v 5.596 h -5.607 z"
               fill="#5c5c5b"
               fill-rule="nonzero"
               fill-opacity="1"
               id="path6" /><path
               d="m 234.459,482.812 8.645,17.507 h 7.14 l -15.785,-31.967 -15.784,31.967 h 7.14 z"
               fill="#5a7bbb"
               fill-rule="nonzero"
               fill-opacity="1"
               id="path7" /><path
               d="m 124.504,495.25 c 1.125,2.161 2.978,3.635 8.355,3.635 2.062,0 3.665,-0.328 4.83,-0.996 1.166,-0.667 1.743,-1.713 1.743,-3.137 0,-1.095 -0.318,-1.922 -0.946,-2.489 -0.627,-0.568 -1.842,-1.046 -3.635,-1.444 -0.667,-0.15 -1.534,-0.319 -2.599,-0.518 -1.076,-0.199 -2.042,-0.418 -2.928,-0.648 -2.44,-0.647 -4.173,-1.593 -5.189,-2.848 -1.015,-1.255 -1.533,-2.788 -1.533,-4.621 0,-1.145 0.239,-2.22 0.707,-3.236 0.468,-1.016 1.185,-1.912 2.151,-2.709 0.926,-0.777 2.111,-1.394 3.545,-1.852 1.434,-0.459 3.038,-0.688 4.82,-0.688 1.664,0 3.337,0.2 5.04,0.608 1.703,0.408 3.117,0.896 4.242,1.484 v 4.999 h -0.249 c -1.195,-0.876 -2.649,-1.623 -4.352,-2.231 -1.713,-0.607 -3.386,-0.906 -5.029,-0.906 -1.643,0 -3.147,0.329 -4.332,0.986 -1.175,0.657 -1.763,1.633 -1.763,2.928 0,1.145 0.359,2.012 1.066,2.589 0.697,0.578 1.822,1.056 3.386,1.414 0.866,0.2 1.832,0.399 2.898,0.598 1.075,0.199 1.962,0.378 2.679,0.548 2.171,0.498 3.844,1.354 5.029,2.559 1.175,1.225 1.762,2.858 1.762,4.88 0,2.539 -1.045,4.621 -3.147,6.244 -2.101,1.623 -4.969,2.44 -8.594,2.44 -7.579,0 -11.243,-2.291 -12.867,-5.577 l -7.449,-15.098 -9.869,20.008 h -5.9157 l 15.7847,-31.978 12.369,25.056 h 0.07"
               fill="#5c5c5b"
               fill-rule="nonzero"
               fill-opacity="1"
               id="path8" /><path
               d="m 213.128,401 h -26.401 -22.059 v 22.059 26.401 h 22.059 v -26.401 h 26.401 z"
               fill="#5a7bbb"
               fill-rule="nonzero"
               fill-opacity="1"
               id="path9" /></g></g></g></g></g></svg>

<svg width="176" height="105" xmlns="http://www.w3.org/2000/svg" xmlns:xlink="http://www.w3.org/1999/xlink" xml:space="preserve" overflow="hidden"><g transform="translate(-96 -400)"><g><g><g><g><path d="M168.721 500.429C167.158 501.176 165.684 501.753 164.279 502.172 162.875 502.59 161.391 502.789 159.808 502.789 157.796 502.789 155.954 502.49 154.281 501.903 152.608 501.315 151.174 500.419 149.979 499.224 148.764 498.029 147.827 496.515 147.17 494.693 146.503 492.87 146.174 490.739 146.174 488.299 146.174 483.758 147.419 480.183 149.919 477.593 152.419 475.004 155.715 473.709 159.808 473.709 161.401 473.709 162.965 473.938 164.499 474.387 166.032 474.835 167.436 475.382 168.721 476.03L168.721 481.228 168.472 481.228C167.048 480.113 165.574 479.266 164.05 478.669 162.537 478.071 161.053 477.773 159.609 477.773 156.95 477.773 154.858 478.669 153.325 480.452 151.791 482.234 151.024 484.853 151.024 488.299 151.024 491.745 151.771 494.225 153.275 496.027 154.779 497.83 156.89 498.726 159.609 498.726 160.555 498.726 161.521 498.596 162.497 498.357 163.473 498.108 164.359 497.78 165.136 497.382 165.813 497.033 166.45 496.664 167.048 496.276 167.646 495.888 168.114 495.549 168.462 495.27L168.711 495.27 168.711 500.419Z" fill="#5C5C5B" fill-rule="nonzero" fill-opacity="1"/><path d="M177.973 502.172 173.292 502.172 173.292 463.452 177.973 463.452 177.973 502.172Z" fill="#5C5C5B" fill-rule="nonzero" fill-opacity="1"/><path d="M258.739 500.319 252.017 500.319 252.017 468.342 258.739 468.342 258.739 500.319Z" fill="#5A7BBB" fill-rule="nonzero" fill-opacity="1"/><path d="M206.585 488.757 186.099 488.757C186.099 490.47 186.358 491.954 186.866 493.229 187.384 494.493 188.081 495.539 188.977 496.356 189.844 497.152 190.87 497.75 192.055 498.148 193.24 498.547 194.544 498.746 195.978 498.746 197.871 498.746 199.773 498.367 201.695 497.611 203.607 496.854 204.971 496.117 205.788 495.38L206.037 495.38 206.037 500.479C204.463 501.146 202.85 501.704 201.207 502.152 199.564 502.6 197.841 502.819 196.028 502.819 191.417 502.819 187.812 501.574 185.223 499.074 182.634 496.575 181.339 493.03 181.339 488.438 181.339 483.847 182.574 480.282 185.064 477.613 187.543 474.944 190.81 473.61 194.853 473.61 198.608 473.61 201.496 474.705 203.527 476.896 205.559 479.087 206.575 482.194 206.575 486.228L206.575 488.767ZM202.033 485.172C202.013 482.712 201.396 480.82 200.181 479.476 198.966 478.131 197.104 477.464 194.624 477.464 192.144 477.464 190.123 478.201 188.639 479.675 187.155 481.149 186.308 482.981 186.109 485.172L202.033 485.172Z" fill="#5C5C5B" fill-rule="nonzero" fill-opacity="1"/><path d="M220.796 463.452 215.199 463.452 210.518 463.452 210.518 468.132 210.518 473.729 215.199 473.729 215.199 468.132 220.796 468.132 220.796 463.452Z" fill="#5C5C5B" fill-rule="nonzero" fill-opacity="1"/><path d="M260.362 505 265.969 505 270.64 505 270.64 500.319 270.64 494.723 265.969 494.723 265.969 500.319 260.362 500.319 260.362 505Z" fill="#5C5C5B" fill-rule="nonzero" fill-opacity="1"/><path d="M234.459 482.812 243.104 500.319 250.244 500.319 234.459 468.352 218.675 500.319 225.815 500.319 234.459 482.812Z" fill="#5A7BBB" fill-rule="nonzero" fill-opacity="1"/><path d="M124.504 495.25C125.629 497.411 127.482 498.885 132.859 498.885 134.921 498.885 136.524 498.557 137.689 497.889 138.855 497.222 139.432 496.176 139.432 494.752 139.432 493.657 139.114 492.83 138.486 492.263 137.859 491.695 136.644 491.217 134.851 490.819 134.184 490.669 133.317 490.5 132.252 490.301 131.176 490.102 130.21 489.883 129.324 489.653 126.884 489.006 125.151 488.06 124.135 486.805 123.12 485.55 122.602 484.017 122.602 482.184 122.602 481.039 122.841 479.964 123.309 478.948 123.777 477.932 124.494 477.036 125.46 476.239 126.386 475.462 127.571 474.845 129.005 474.387 130.439 473.928 132.043 473.699 133.825 473.699 135.489 473.699 137.162 473.899 138.865 474.307 140.568 474.715 141.982 475.203 143.107 475.791L143.107 480.79 142.858 480.79C141.663 479.914 140.209 479.167 138.506 478.559 136.793 477.952 135.12 477.653 133.477 477.653 131.834 477.653 130.33 477.982 129.145 478.639 127.97 479.296 127.382 480.272 127.382 481.567 127.382 482.712 127.741 483.579 128.448 484.156 129.145 484.734 130.27 485.212 131.834 485.57 132.7 485.77 133.666 485.969 134.732 486.168 135.807 486.367 136.694 486.546 137.411 486.716 139.582 487.214 141.255 488.07 142.44 489.275 143.615 490.5 144.202 492.133 144.202 494.155 144.202 496.694 143.157 498.776 141.055 500.399 138.954 502.022 136.086 502.839 132.461 502.839 124.882 502.839 121.218 500.548 119.594 497.262L112.145 482.164 102.276 502.172 96.3603 502.172 112.145 470.194 124.514 495.25 124.584 495.25" fill="#5C5C5B" fill-rule="nonzero" fill-opacity="1"/><path d="M213.128 401 186.727 401 164.668 401 164.668 423.059 164.668 449.46 186.727 449.46 186.727 423.059 213.128 423.059 213.128 401Z" fill="#5A7BBB" fill-rule="nonzero" fill-opacity="1"/></g></g></g></g></g></svg>
